X:961
T:Farewell to My Troubles
N:"Collected by F.O'Neill"
B:O'Neill's 961
Z:Transcribed by Dan G. Petersen, dangp@post6.tele.dk
M:6/8
L:1/8
K:D
A|dec dcA|GFG AFD|FEF GFD|FGA c2A|
dec dcA|GFG AFD|F3 G2(A/G/)|FDD D2:|
G|FED FGA|cdB =cAG|A=fe dec|ABc d2c|
BGB d=cA|GFG AFD|F3 G2(A/G/)|FDD D2:|


